public/images/sqlite.svg

<svg xmlns="http://www.w3.org/2000/svg"  viewBox="0 0 50 50" width="50px" height="50px"><path d="M 43.640625 1.0019531 C 42.177246 0.96137695 40.611719 1.7683594 39.058594 3.1464844 C 38.689594 3.4744844 38.321078 3.8385625 37.955078 4.2265625 C 33.705078 8.7355625 29.759203 17.086844 28.533203 23.464844 C 29.010203 24.432844 29.384859 25.669281 29.630859 26.613281 C 29.693859 26.855281 29.749922 27.081391 29.794922 27.275391 C 29.902922 27.733391 29.960938 28.029297 29.960938 28.029297 C 29.960938 28.029297 29.923578 27.885641 29.767578 27.431641 C 29.737578 27.344641 29.703062 27.250672 29.664062 27.138672 C 29.647063 27.092672 29.625609 27.036562 29.599609 26.976562 C 29.322609 26.331563 28.554797 24.970906 28.216797 24.378906 C 27.927797 25.230906 27.673937 26.027047 27.460938 26.748047 C 28.434938 28.531047 29.027344 31.585937 29.027344 31.585938 C 29.027344 31.585938 28.977422 31.388266 28.732422 30.697266 C 28.515422 30.086266 27.432781 28.188141 27.175781 27.744141 C 26.736781 29.364141 26.56175 30.458609 26.71875 30.724609 C 27.02375 31.240609 27.315313 32.129281 27.570312 33.113281 C 27.659312 33.454281 27.742266 33.806203 27.822266 34.158203 C 27.557266 36.485203 27.495047 38.822719 27.623047 41.136719 C 27.756047 43.644719 28.106906 46.1205 28.503906 48.5625 C 28.545906 48.8195 28.781922 49.005469 29.044922 48.980469 C 29.319922 48.954469 29.522094 48.710547 29.496094 48.435547 C 29.371094 47.104547 29.265266 45.777125 29.197266 44.453125 L 29.257812 45.046875 C 29.162813 43.857875 29.1365 42.577844 29.1875 41.214844 C 29.3685 36.380844 30.482109 30.550609 32.537109 24.474609 C 36.010109 15.302609 40.827328 7.9417344 45.236328 4.4277344 C 41.217328 8.0577344 35.778391 19.807203 34.150391 24.158203 C 32.327391 29.030203 31.034859 33.601422 30.255859 37.982422 C 31.599859 33.875422 35.943359 32.111328 35.943359 32.111328 C 35.943359 32.111328 38.075453 29.482516 40.564453 25.728516 C 39.073453 26.068516 36.622734 26.651094 35.802734 26.996094 C 34.592734 27.504094 34.267578 27.677734 34.267578 27.677734 C 34.267578 27.677734 38.186828 25.289984 41.548828 24.208984 C 46.173828 16.924984 51.212672 6.5767813 46.138672 2.0507812 C 45.359047 1.3555312 44.518652 1.0262988 43.640625 1.0019531 z M 9 3 C 6.8034768 3 5 4.8034768 5 7 L 5 40 C 5 42.196523 6.8034768 44 9 44 L 24 44 A 1.0001 1.0001 0 1 0 24 42 L 9 42 C 7.8885232 42 7 41.111477 7 40 L 7 7 C 7 5.8885232 7.8885232 5 9 5 L 33 5 A 1.0001 1.0001 0 1 0 33 3 L 9 3 z"/></svg>

<svg xmlns="http://www.w3.org/2000/svg" xmlns:xlink="http://www.w3.org/1999/xlink" viewBox="0,0,256,256" width="100px" height="100px" fill-rule="nonzero"><g fill="#3c5bbd" fill-rule="nonzero" stroke="none" stroke-width="1" stroke-linecap="butt" stroke-linejoin="miter" stroke-miterlimit="10" stroke-dasharray="" stroke-dashoffset="0" font-family="none" font-weight="none" font-size="none" text-anchor="none" style="mix-blend-mode: normal"><g transform="scale(5.12,5.12)"><path d="M43.64063,1.00195c-1.46338,-0.04058 -3.02891,0.76641 -4.58203,2.14453c-0.369,0.328 -0.73752,0.69208 -1.10352,1.08008c-4.25,4.509 -8.19588,12.86028 -9.42187,19.23828c0.477,0.968 0.85166,2.20444 1.09766,3.14844c0.063,0.242 0.11906,0.46811 0.16406,0.66211c0.108,0.458 0.16602,0.75391 0.16602,0.75391c0,0 -0.03736,-0.14366 -0.19336,-0.59766c-0.03,-0.087 -0.06452,-0.18097 -0.10352,-0.29297c-0.017,-0.046 -0.03845,-0.10211 -0.06445,-0.16211c-0.277,-0.645 -1.04481,-2.00566 -1.38281,-2.59766c-0.289,0.852 -0.54286,1.64814 -0.75586,2.36914c0.974,1.783 1.56641,4.83789 1.56641,4.83789c0,0 -0.04992,-0.19767 -0.29492,-0.88867c-0.217,-0.611 -1.29964,-2.50912 -1.55664,-2.95312c-0.439,1.62 -0.61403,2.71447 -0.45703,2.98047c0.305,0.516 0.59656,1.40467 0.85156,2.38867c0.089,0.341 0.17195,0.69292 0.25195,1.04492c-0.265,2.327 -0.32722,4.66452 -0.19922,6.97852c0.133,2.508 0.48386,4.98378 0.88086,7.42578c0.042,0.257 0.27802,0.44297 0.54102,0.41797c0.275,-0.026 0.47717,-0.26992 0.45117,-0.54492c-0.125,-1.331 -0.23083,-2.65842 -0.29883,-3.98242l0.06055,0.59375c-0.095,-1.189 -0.12131,-2.46903 -0.07031,-3.83203c0.181,-4.834 1.29461,-10.66423 3.34961,-16.74023c3.473,-9.172 8.29022,-16.53287 12.69922,-20.04687c-4.019,3.63 -9.45794,15.37947 -11.08594,19.73047c-1.823,4.872 -3.11553,9.44322 -3.89453,13.82422c1.344,-4.107 5.6875,-5.87109 5.6875,-5.87109c0,0 2.13209,-2.62881 4.62109,-6.38281c-1.491,0.34 -3.94172,0.92258 -4.76172,1.26758c-1.21,0.508 -1.53516,0.68164 -1.53516,0.68164c0,0 3.91925,-2.38775 7.28125,-3.46875c4.625,-7.284 9.66384,-17.6322 4.58984,-22.1582c-0.77963,-0.69525 -1.62002,-1.02448 -2.49805,-1.04883zM9,3c-2.19652,0 -4,1.80348 -4,4v33c0,2.19652 1.80348,4 4,4h15c0.36064,0.0051 0.69608,-0.18438 0.87789,-0.49587c0.18181,-0.3115 0.18181,-0.69676 0,-1.00825c-0.18181,-0.3115 -0.51725,-0.50097 -0.87789,-0.49587h-15c-1.11148,0 -2,-0.88852 -2,-2v-33c0,-1.11148 0.88852,-2 2,-2h24c0.36064,0.0051 0.69608,-0.18438 0.87789,-0.49587c0.18181,-0.3115 0.18181,-0.69676 0,-1.00825c-0.18181,-0.3115 -0.51725,-0.50097 -0.87789,-0.49587z"></path></g></g></svg>
